svg/u1f91f.svg

<svg viewBox="0 0 128 128" xmlns="http://www.w3.org/2000/svg">
  <radialGradient id="e" cx="47.958" cy="9.9542" gradientTransform="matrix(-.0021809 .9906 -.4419 -.00095467 52.461 -37.036)" gradientUnits="userSpaceOnUse" r="115.5">
    <stop offset="0" stop-color="#FFB300"/>
    <stop offset=".7843" stop-color="#FFCA28"/>
    <stop offset="1" stop-color="#FFB300"/>
  </radialGradient>
  <path d="m48.28 122.5c-21.88 0-37.17-15.93-37.17-38.75v-17.44l-2.08-32.11c-0.19-2.65 0.5-5.01 1.93-6.66 1.17-1.35 2.81-2.13 4.73-2.27 0.2-0.01 0.4-0.02 0.59-0.02 4.07 0 6.92 3.05 7.25 7.77 0 0.04 0.01 0.09 0.01 0.13l3.86 23.99c0.12 0.72 0.74 1.26 1.47 1.26 9.94 0.05 23.2 1.28 34.59 3.21 0.08 0.01 0.17 0.02 0.25 0.02 0.35 0 0.69-0.12 0.96-0.35 0.34-0.28 0.53-0.69 0.54-1.13l0.74-46.96c0.21-3.8 2.49-7.7 7.1-7.7 0.15 0 0.3 0 0.46 0.01 2.11 0.11 3.86 1.02 5.05 2.61 1.16 1.56 1.73 3.7 1.6 6.02l-0.47 49.03c-0.02 1.94 0.11 3.66 0.4 5.27 1.35 7.53 4.85 9.15 7.16 10.23 1 0.47 1.58 0.75 1.84 1.25 1.76 3.39 0.3 12.27-5.18 21.28-3.88 6.41-15.15 21.31-35.63 21.31z" fill="url(#e)"/>
  <path d="m73.07 7c0.12 0 0.25 0 0.38 0.01 1.5 0.08 2.72 0.63 3.63 1.64 1.14 1.27 1.73 3.24 1.61 5.41v0.14l-0.47 48.96c-0.02 2.03 0.12 3.84 0.43 5.55 1.49 8.29 5.57 10.19 8 11.32 0.42 0.2 0.99 0.46 1.15 0.61 1.26 2.51 0.5 10.49-5.15 19.79-3.77 6.18-14.65 20.57-34.37 20.57-10.64 0-19.68-3.75-26.15-10.84-6.14-6.73-9.51-16.1-9.51-26.41v-17.44c0-0.06 0-0.13-0.01-0.19l-2.08-32.03c-0.16-2.21 0.41-4.24 1.57-5.56 0.92-1.06 2.16-1.65 3.7-1.75 0.17-0.01 0.33-0.02 0.49-0.02 3.91 0 5.55 3.44 5.75 6.38 0.01 0.09 0.02 0.18 0.03 0.26l3.86 23.99c0.23 1.45 1.48 2.52 2.95 2.52 9.86 0.05 23.03 1.27 34.35 3.19 0.17 0.03 0.33 0.04 0.5 0.04 0.7 0 1.38-0.24 1.92-0.69 0.67-0.56 1.07-1.38 1.08-2.26l0.74-46.9c0.17-2.92 1.74-6.29 5.6-6.29m0-3c-5.09 0-8.31 4-8.6 9.17l-0.74 46.96c-10.6-1.79-24.01-3.18-34.84-3.23l-3.86-23.99c-0.37-5.19-3.66-9.17-8.75-9.17-0.23 0-0.46 0.01-0.7 0.02-5.48 0.38-8.44 5.09-8.05 10.52l2.08 32.01v17.44c0 22.14 14.57 40.25 38.67 40.25 31.99 0 46.97-35.5 42.16-44.78-1.53-2.95-7.04-0.96-8.85-11.05-0.3-1.64-0.39-3.32-0.38-4.99l0.47-48.96c0.29-5.32-2.68-9.89-8.08-10.19-0.18-0.01-0.36-0.01-0.53-0.01z" fill="#EDA600"/>
  <radialGradient id="d" cx="48.104" cy="75.155" gradientTransform="matrix(1 0 0 .6096 0 29.235)" gradientUnits="userSpaceOnUse" r="29.551">
    <stop offset=".6104" stop-color="#F9A825"/>
    <stop offset=".8171" stop-color="#FDAF0F" stop-opacity=".4694"/>
    <stop offset="1" stop-color="#FFB300" stop-opacity="0"/>
  </radialGradient>
  <ellipse cx="48.1" cy="75.05" fill="url(#d)" opacity=".4" rx="27.54" ry="20.47"/>
  <radialGradient id="c" cx="49.052" cy="258.46" fx="55.192" fy="229.54" gradientTransform="matrix(-.0067217 .9851 -.3362 .0036853 142.3 4.0201)" gradientUnits="userSpaceOnUse" r="29.562">
    <stop offset=".5993" stop-color="#FFCA28"/>
    <stop offset="1" stop-color="#FFB300"/>
  </radialGradient>
  <path d="m54.66 84.22c-2.01 0-3.74-0.67-5-1.95-1.37-1.39-2.11-3.4-2.08-5.67l-0.8-20.98c0.05-4.17 3.82-7.64 8.4-7.66 2.36 0 4.49 0.87 6.04 2.44 1.39 1.41 2.15 3.25 2.12 5.18l-1.29 20.83c-0.06 4.61-3.08 7.79-7.36 7.81h-0.03z" fill="url(#c)"/>
  <path d="m55.21 46.46v3c1.92 0 3.67 0.71 4.94 1.99 1.09 1.11 1.69 2.54 1.69 4.04l-1.29 20.82c0 0.05 0 0.1-0.01 0.15-0.04 3.1-1.86 6.23-5.89 6.25-1.63 0-2.95-0.51-3.93-1.5-1.09-1.1-1.67-2.73-1.65-4.6v-0.15l-0.79-20.82c0.08-3.4 3.16-6.17 6.91-6.18l0.02-3m0 0h-0.04c-5.4 0.02-9.83 4.15-9.9 9.21l0.8 20.91c-0.06 5.05 3.21 9.14 8.58 9.14h0.04c5.4-0.02 8.79-4.15 8.85-9.21l1.3-20.91c0.07-5.06-4.24-9.14-9.63-9.14z" fill="#EDA600"/>
  <radialGradient id="b" cx="-439.03" cy="70.305" gradientTransform="matrix(.1233 .9766 -.3952 .0458 117.13 483.97)" gradientUnits="userSpaceOnUse" r="22.108">
    <stop offset=".5993" stop-color="#FFCA28"/>
    <stop offset="1" stop-color="#FFB300"/>
  </radialGradient>
  <path d="m37.49 82.85c-3.95 0-6.94-2.83-7.42-7.05l-3.03-17.2c-0.21-1.89 0.37-3.86 1.65-5.45 1.41-1.75 3.56-2.89 5.91-3.13 0.31-0.03 0.63-0.05 0.94-0.05 4.36 0 7.99 3.03 8.45 7.05l0.91 17.02c0.28 2.44-0.28 4.62-1.57 6.22-1.17 1.45-2.87 2.33-4.91 2.54-0.32 0.04-0.63 0.05-0.93 0.05z" fill="url(#b)"/>
  <path d="m35.53 51.49c3.56 0 6.54 2.42 6.95 5.64l0.92 17.01c0 0.06 0.01 0.12 0.02 0.18 0.22 1.95-0.22 3.73-1.26 5.02-0.91 1.13-2.26 1.82-3.9 1.98-0.26 0.03-0.52 0.04-0.77 0.04-3.2 0-5.53-2.24-5.93-5.72l-0.03-0.18-3-17.01c-0.16-1.55 0.31-3.09 1.32-4.35 1.16-1.44 2.94-2.38 4.89-2.58 0.27-0.02 0.53-0.03 0.79-0.03m0-3c-0.36 0-0.72 0.02-1.09 0.05-5.5 0.56-9.48 5.18-8.88 10.33l3.02 17.11c0.55 4.81 3.98 8.37 8.91 8.37 0.35 0 0.71-0.02 1.07-0.05 5.5-0.56 8.43-5.18 7.84-10.33l-0.92-17.11c-0.56-4.81-4.9-8.37-9.95-8.37z" fill="#EDA600"/>
  <radialGradient id="a" cx="67.233" cy="492.74" gradientTransform="matrix(-.7863 .2317 .2506 .8343 8.8168 -375)" gradientUnits="userSpaceOnUse" r="80.744">
    <stop offset=".4647" stop-color="#FFCA28"/>
    <stop offset="1" stop-color="#FFB300"/>
  </radialGradient>
  <path d="m108.69 64.81c7.5 1.38 13.25 6.12 12.45 11.56-0.61 4.13-3.7 7.19-9.56 6.41-10.1-1.35-17.97 3.32-21.32 10.35-4.19 8.8-9.88 16.62-12.37 17.55-10.74 4.02-20.33-3.74-18.89-16.18 1.53-13.25 17.13-22.54 21.2-24.49 5.86-2.82 16.74-7.35 28.49-5.2z" fill="url(#a)"/>
  <path d="m108.69 64.81c-2.14-0.39-4.25-0.56-6.3-0.56-9.24 0-17.39 3.45-22.2 5.76-1.83 0.88-8.15 5-12.32 8.55 2.62 0.62 12.27-5.2 13.62-5.85 2.81-1.35 11.36-5.46 20.9-5.46 1.96 0 3.9 0.17 5.76 0.51 6.13 1.12 10.53 4.71 10.02 8.17-0.39 2.64-2.01 3.97-4.83 3.97-0.43 0-0.89-0.03-1.37-0.1-1.28-0.17-2.57-0.26-3.82-0.26-9.1 0-17 4.71-20.61 12.29-1.35 2.83-2.77 5.64-4.43 8.31-0.79 1.27-1.61 2.51-2.58 3.65-1.34 1.57-2.75 3.08-4.18 4.57-0.72 0.75-1.44 1.49-2.16 2.23-0.37 0.38-0.72 0.81-1.12 1.15-0.18 0.15-0.72 0.73-0.92 0.74 1.38-0.09 6.29 3.75 18.09-19.37 3.13-6.13 9.46-10.58 17.9-10.58 1.11 0 2.25 0.08 3.42 0.23 0.62 0.08 1.21 0.12 1.76 0.12 4.72 0 7.25-2.84 7.8-6.53 0.82-5.41-4.93-10.16-12.43-11.54z" fill="#EDA600"/>
</svg>

<svg viewBox="0 0 128 128" xmlns="http://www.w3.org/2000/svg">
  <defs>
    <radialGradient id="e" cx="10.456325" cy="-108.577623" gradientTransform="matrix(-0.002181 0.9906 -0.4419 -0.000955 0 0)" gradientUnits="userSpaceOnUse" r="115.5">
      <stop offset="0" stop-color="#FFB300"/>
      <stop offset=".7843" stop-color="#FFCA28"/>
      <stop offset="1" stop-color="#FFB300"/>
    </radialGradient>
    <radialGradient id="d" cx="48.104" cy="123.112677" gradientTransform="matrix(1 0 0 0.6096 0 0)" gradientUnits="userSpaceOnUse" r="29.551">
      <stop offset=".6104" stop-color="#F9A825"/>
      <stop offset=".8171" stop-color="#FDAF0F" stop-opacity=".4694"/>
      <stop offset="1" stop-color="#FFB300" stop-opacity="0"/>
    </radialGradient>
    <radialGradient id="c" cx="54.716762" cy="-164.913221" fx="60.856762" fy="-193.833221" gradientTransform="matrix(-0.006722 0.9851 -0.3362 0.003685 0 0)" gradientUnits="userSpaceOnUse" r="29.562">
      <stop offset=".5993" stop-color="#FFCA28"/>
      <stop offset="1" stop-color="#FFB300"/>
    </radialGradient>
    <radialGradient id="b" cx="63.08892" cy="-69.418525" gradientTransform="matrix(0.1233 0.9766 -0.3952 0.0458 0 0)" gradientUnits="userSpaceOnUse" r="22.108">
      <stop offset=".5993" stop-color="#FFCA28"/>
      <stop offset="1" stop-color="#FFB300"/>
    </radialGradient>
    <radialGradient id="a" cx="-74.672238" cy="82.671012" gradientTransform="matrix(-0.7863 0.2317 0.2506 0.8343 0 0)" gradientUnits="userSpaceOnUse" r="80.744">
      <stop offset=".4647" stop-color="#FFCA28"/>
      <stop offset="1" stop-color="#FFB300"/>
    </radialGradient>
  </defs>
  <path d="M48.28,122.5 C26.4,122.5 11.11,106.57 11.11,83.75 L11.11,66.31 L9.03,34.2 C8.84,31.55 9.53,29.19 10.96,27.54 C12.13,26.19 13.77,25.41 15.69,25.27 C15.89,25.26 16.09,25.25 16.28,25.25 C20.35,25.25 23.2,28.3 23.53,33.02 C23.53,33.06 23.54,33.11 23.54,33.15 L27.4,57.14 C27.52,57.86 28.14,58.4 28.87,58.4 C38.81,58.45 52.07,59.68 63.46,61.61 C63.54,61.62 63.63,61.63 63.71,61.63 C64.06,61.63 64.4,61.51 64.67,61.28 C65.01,61 65.2,60.59 65.21,60.15 L65.95,13.19 C66.16,9.39 68.44,5.49 73.05,5.49 C73.2,5.49 73.35,5.49 73.51,5.5 C75.62,5.61 77.37,6.52 78.56,8.11 C79.72,9.67 80.29,11.81 80.16,14.13 L79.69,63.16 C79.67,65.1 79.8,66.82 80.09,68.43 C81.44,75.96 84.94,77.58 87.25,78.66 C88.25,79.13 88.83,79.41 89.09,79.91 C90.85,83.3 89.39,92.18 83.91,101.19 C80.03,107.6 68.76,122.5 48.28,122.5 Z" fill="url(#e)"/>
  <path d="M73.07,7 C73.19,7 73.32,7 73.45,7.01 C74.95,7.09 76.17,7.64 77.08,8.65 C78.22,9.92 78.81,11.89 78.69,14.06 L78.69,14.2 L78.22,63.16 C78.2,65.19 78.34,67 78.65,68.71 C80.14,77 84.22,78.9 86.65,80.03 C87.07,80.23 87.64,80.49 87.8,80.64 C89.06,83.15 88.3,91.13 82.65,100.43 C78.88,106.61 68,121 48.28,121 C37.64,121 28.6,117.25 22.13,110.16 C15.99,103.43 12.62,94.06 12.62,83.75 L12.62,66.31 C12.62,66.25 12.62,66.18 12.61,66.12 L10.53,34.09 C10.37,31.88 10.94,29.85 12.1,28.53 C13.02,27.47 14.26,26.88 15.8,26.78 C15.97,26.77 16.13,26.76 16.29,26.76 C20.2,26.76 21.84,30.2 22.04,33.14 C22.05,33.23 22.06,33.32 22.07,33.4 L25.93,57.39 C26.16,58.84 27.41,59.91 28.88,59.91 C38.74,59.96 51.91,61.18 63.23,63.1 C63.4,63.13 63.56,63.14 63.73,63.14 C64.43,63.14 65.11,62.9 65.65,62.45 C66.32,61.89 66.72,61.07 66.73,60.19 L67.47,13.29 C67.64,10.37 69.21,7 73.07,7 M73.07,4 C67.98,4 64.76,8 64.47,13.17 L63.73,60.13 C53.13,58.34 39.72,56.95 28.89,56.9 L25.03,32.91 C24.66,27.72 21.37,23.74 16.28,23.74 C16.05,23.74 15.82,23.75 15.58,23.76 C10.1,24.14 7.14,28.85 7.53,34.28 L9.61,66.29 L9.61,83.73 C9.61,105.87 24.18,123.98 48.28,123.98 C80.27,123.98 95.25,88.48 90.44,79.2 C88.91,76.25 83.4,78.24 81.59,68.15 C81.29,66.51 81.2,64.83 81.21,63.16 L81.68,14.2 C81.97,8.88 79,4.31 73.6,4.01 C73.42,4 73.24,4 73.07,4 Z" fill="#EDA600"/>
  <path d="M75.64,75.05 A27.54 20.47 0 1 1 20.56,75.05 A27.54 20.47 0 1 1 75.64,75.05 Z" fill="url(#d)" opacity="0.4"/>
  <path d="M54.66,84.22 C52.65,84.22 50.92,83.55 49.66,82.27 C48.29,80.88 47.55,78.87 47.58,76.6 L46.78,55.62 C46.83,51.45 50.6,47.98 55.18,47.96 C57.54,47.96 59.67,48.83 61.22,50.4 C62.61,51.81 63.37,53.65 63.34,55.58 L62.05,76.41 C61.99,81.02 58.97,84.2 54.69,84.22 L54.66,84.22 Z" fill="url(#c)"/>
  <path d="M55.21,46.46 L55.21,49.46 C57.13,49.46 58.88,50.17 60.15,51.45 C61.24,52.56 61.84,53.99 61.84,55.49 L60.55,76.31 C60.55,76.36 60.55,76.41 60.54,76.46 C60.5,79.56 58.68,82.69 54.65,82.71 C53.02,82.71 51.7,82.2 50.72,81.21 C49.63,80.11 49.05,78.48 49.07,76.61 L49.07,76.46 L48.28,55.64 C48.36,52.24 51.44,49.47 55.19,49.46 L55.21,46.46 M55.21,46.46 L55.17,46.46 C49.77,46.48 45.34,50.61 45.27,55.67 L46.07,76.58 C46.01,81.63 49.28,85.72 54.65,85.72 L54.69,85.72 C60.09,85.7 63.48,81.57 63.54,76.51 L64.84,55.6 C64.91,50.54 60.6,46.46 55.21,46.46 Z" fill="#EDA600"/>
  <path d="M37.49,82.85 C33.54,82.85 30.55,80.02 30.07,75.8 L27.04,58.6 C26.83,56.71 27.41,54.74 28.69,53.15 C30.1,51.4 32.25,50.26 34.6,50.02 C34.91,49.99 35.23,49.97 35.54,49.97 C39.9,49.97 43.53,53 43.99,57.02 L44.9,74.04 C45.18,76.48 44.62,78.66 43.33,80.26 C42.16,81.71 40.46,82.59 38.42,82.8 C38.1,82.84 37.79,82.85 37.49,82.85 Z" fill="url(#b)"/>
  <path d="M35.53,51.49 C39.09,51.49 42.07,53.91 42.48,57.13 L43.4,74.14 C43.4,74.2 43.41,74.26 43.42,74.32 C43.64,76.27 43.2,78.05 42.16,79.34 C41.25,80.47 39.9,81.16 38.26,81.32 C38,81.35 37.74,81.36 37.49,81.36 C34.29,81.36 31.96,79.12 31.56,75.64 L31.53,75.46 L28.53,58.45 C28.37,56.9 28.84,55.36 29.85,54.1 C31.01,52.66 32.79,51.72 34.74,51.52 C35.01,51.5 35.27,51.49 35.53,51.49 M35.53,48.49 C35.17,48.49 34.81,48.51 34.44,48.54 C28.94,49.1 24.96,53.72 25.56,58.87 L28.58,75.98 C29.13,80.79 32.56,84.35 37.49,84.35 C37.84,84.35 38.2,84.33 38.56,84.3 C44.06,83.74 46.99,79.12 46.4,73.97 L45.48,56.86 C44.92,52.05 40.58,48.49 35.53,48.49 Z" fill="#EDA600"/>
  <path d="M108.69,64.81 C116.19,66.19 121.94,70.93 121.14,76.37 C120.53,80.5 117.44,83.56 111.58,82.78 C101.48,81.43 93.61,86.1 90.26,93.13 C86.07,101.93 80.38,109.75 77.89,110.68 C67.15,114.7 57.56,106.94 59,94.5 C60.53,81.25 76.13,71.96 80.2,70.01 C86.06,67.19 96.94,62.66 108.69,64.81 Z" fill="url(#a)"/>
  <path d="M108.69,64.81 C106.55,64.42 104.44,64.25 102.39,64.25 C93.15,64.25 85,67.7 80.19,70.01 C78.36,70.89 72.04,75.01 67.87,78.56 C70.49,79.18 80.14,73.36 81.49,72.71 C84.3,71.36 92.85,67.25 102.39,67.25 C104.35,67.25 106.29,67.42 108.15,67.76 C114.28,68.88 118.68,72.47 118.17,75.93 C117.78,78.57 116.16,79.9 113.34,79.9 C112.91,79.9 112.45,79.87 111.97,79.8 C110.69,79.63 109.4,79.54 108.15,79.54 C99.05,79.54 91.15,84.25 87.54,91.83 C86.19,94.66 84.77,97.47 83.11,100.14 C82.32,101.41 81.5,102.65 80.53,103.79 C79.19,105.36 77.78,106.87 76.35,108.36 C75.63,109.11 74.91,109.85 74.19,110.59 C73.82,110.97 73.47,111.4 73.07,111.74 C72.89,111.89 72.35,112.47 72.15,112.48 C73.53,112.39 78.44,116.23 90.24,93.11 C93.37,86.98 99.7,82.53 108.14,82.53 C109.25,82.53 110.39,82.61 111.56,82.76 C112.18,82.84 112.77,82.88 113.32,82.88 C118.04,82.88 120.57,80.04 121.12,76.35 C121.94,70.94 116.19,66.19 108.69,64.81 Z" fill="#EDA600"/>
</svg>
